src/assets/svg/cat.svg

<svg width="108" height="103" viewBox="0 0 108 103" fill="none" xmlns="http://www.w3.org/2000/svg">
<path d="M91.7155 79.1567H106.493C107.165 76.5684 107.501 73.6567 107.389 70.9606H91.7155C89.8124 70.9606 88.357 69.5587 88.357 67.7253C88.357 65.892 89.8124 64.49 91.7155 64.49H106.493C101.008 39.794 70.8925 15.8529 38.7623 25.5587C19.8425 31.2744 4.61705 47.7744 0.922643 64.49H15.7003C17.6035 64.49 19.0588 65.892 19.0588 67.7253C19.0588 69.5587 17.6035 70.9606 15.7003 70.9606H0.0270292C-0.0849226 73.6567 0.138981 76.5684 0.922643 79.1567H15.7003C17.6035 79.1567 19.0588 80.5586 19.0588 82.392C19.0588 84.2253 17.6035 85.6273 15.7003 85.6273H3.72144C12.7895 99.8625 36.5233 102.99 53.7639 102.99C71.0045 102.99 94.6263 99.8625 103.694 85.6273H91.7155C89.8124 85.6273 88.357 84.2253 88.357 82.392C88.357 80.6665 89.9243 79.1567 91.7155 79.1567ZM35.6277 48.0979C39.0982 48.0979 41.785 50.794 41.785 54.0293C41.785 57.2646 38.9862 59.9606 35.6277 59.9606C32.1572 59.9606 29.4703 57.2646 29.4703 54.0293C29.4703 50.794 32.2691 48.0979 35.6277 48.0979ZM53.7639 93.8233C45.4795 103.098 29.4703 97.49 29.4703 85.1959C29.4703 83.3626 30.9257 81.9606 32.8289 81.9606C34.7321 81.9606 36.1875 83.3626 36.1875 85.1959C36.1875 88.9704 39.3221 91.99 43.2404 91.99C46.599 91.99 49.3978 89.7253 50.1814 86.7057C43.8002 83.9018 40.3297 74.1959 44.6958 70.2057C46.8229 68.1567 49.8456 68.1567 52.7563 68.2645C56.5627 68.2645 60.369 67.8332 62.832 70.2057C67.1981 74.3037 63.6156 84.0096 57.3463 86.7057C58.13 89.7253 60.9288 91.99 64.2874 91.99C68.2057 91.99 71.3403 88.9704 71.3403 85.1959C71.3403 83.3626 72.7957 81.9606 74.6989 81.9606C76.6021 81.9606 78.0574 83.3626 78.0574 85.1959C77.9455 97.49 62.0483 103.098 53.7639 93.8233ZM71.7881 59.9606C68.3176 59.9606 65.6308 57.2646 65.6308 54.0293C65.6308 50.794 68.4296 48.0979 71.7881 48.0979C75.2586 48.0979 77.9455 50.794 77.9455 54.0293C77.9455 57.2646 75.1467 59.9606 71.7881 59.9606Z" fill="white"/>
<path d="M57.906 74.7351C57.0104 74.5195 55.2191 74.6273 52.6443 74.6273C51.6367 74.6273 50.0694 74.6273 49.3977 74.7351C49.1737 77.1077 51.5247 80.99 53.6518 80.99C55.8909 80.99 58.2418 77.1077 57.906 74.7351Z" fill="white"/>
<path d="M33.8365 20.4902C29.5823 10.5686 21.074 3.12744 10.4385 0C4.84094 8.19606 5.06485 31.0588 5.51265 40.7646C12.7895 31.7058 22.7532 24.4803 33.8365 20.4902Z" fill="white"/>
<path d="M102.015 40.8725C102.463 31.0588 102.687 8.19606 97.0893 0C86.23 3.12745 77.8336 10.8921 73.6914 20.4902C84.9985 24.5882 94.8503 31.9215 102.015 40.8725Z" fill="white"/>
</svg>

<svg xmlns="http://www.w3.org/2000/svg" width="108" height="103" fill="#fff"><path d="M91.716 79.157h14.777c.672-2.588 1.008-5.5.896-8.196H91.716c-1.903 0-3.36-1.402-3.36-3.235s1.455-3.235 3.36-3.235h14.777c-5.485-24.696-35.6-48.637-67.73-38.93C19.843 31.274 4.617 47.774.923 64.5H15.7c1.903 0 3.36 1.402 3.36 3.235s-1.455 3.235-3.36 3.235H.027c-.112 2.696.112 5.608.896 8.196H15.7c1.903 0 3.36 1.402 3.36 3.235s-1.455 3.235-3.36 3.235H3.72C12.8 99.863 36.523 103 53.764 103s40.862-3.127 49.93-17.363H91.716c-1.903 0-3.36-1.402-3.36-3.235 0-1.725 1.567-3.235 3.36-3.235zm-56.088-31.06c3.47 0 6.157 2.696 6.157 5.93s-2.8 5.93-6.157 5.93c-3.47 0-6.157-2.696-6.157-5.93s2.8-5.93 6.157-5.93zm18.136 45.725C45.48 103.098 29.47 97.5 29.47 85.196c0-1.833 1.455-3.235 3.36-3.235s3.36 1.402 3.36 3.235C36.2 88.97 39.325 92 43.243 92c3.36 0 6.157-2.265 6.94-5.284-6.38-2.804-9.852-12.5-5.486-16.5 2.127-2.05 5.15-2.05 8.06-1.94 3.806 0 7.613-.43 10.076 1.94 4.366 4.098.784 13.804-5.486 16.5.784 3.02 3.583 5.284 6.94 5.284 3.918 0 7.053-3.02 7.053-6.794 0-1.833 1.455-3.235 3.36-3.235s3.36 1.402 3.36 3.235c-.112 12.294-16 17.902-24.293 8.627zM71.788 59.96c-3.47 0-6.157-2.696-6.157-5.93s2.8-5.93 6.157-5.93c3.47 0 6.157 2.696 6.157 5.93s-2.8 5.93-6.157 5.93zM57.906 74.735c-.896-.216-2.687-.108-5.262-.108l-3.247.108C49.174 77.108 51.525 81 53.652 81c2.24 0 4.6-3.882 4.254-6.255zM33.837 20.5C29.582 10.57 21.074 3.127 10.44 0c-5.6 8.196-5.375 31.06-4.927 40.765C12.8 31.706 22.753 24.48 33.837 20.5zm68.178 20.373c.448-9.814.672-32.676-4.926-40.872-10.86 3.126-19.255 10.89-23.4 20.5 11.3 4.088 21.16 11.422 28.325 20.373z"/></svg>
